!!!OTL: AHNUNGSGRAUEND TODESMUTIG
!!!ARE: Europa, Mitteleuropa, Deutschland
!!!SCT: F0420
!!!YEM: Copyright 1995, estate of Helmut Schaffrath.
**kern
*ICvox
*Ivox
!! Mixed meters:  4/4; 3/4
*M4/4
*k[b-e-a-]
*E-:
{8B-
8G
=1
4E-
4G
4B-
4e-
=2
*M3/4
8d
8c
4c
4r}
=3
{8A-
8G
=4
*M4/4
4.F
8F
4.B-
8A-
=5
*M3/4
2G
4r}
=6
{8B-
8G
=7
*M4/4
4E-
4G
4B-
4e-
=8
*M3/4
8d
8c
4c
4r}
=9
{8A-
8G
=10
*M4/4
4.F
8F
4.B-
8A-
=11
*M3/4
2G
4r}
=12
{8F
8An
=13
*M4/4
4.B-
8B-
4.c
8c
=14
*M3/4
8d
8c
4B-
4r}
=15
{8c
8d
=16
*M4/4
4e-
4d
4c
4d
=17
*M3/4
2B-
4r}
=18
{8B-
8d
=19
*M4/4
4.e-
8B-
8A-
8G
8F
8E-
=20
*M3/4
4c
4c
4r}
=21
{8e-
8c
=22
*M4/4
4.B-
8G
4B-
8A-
8F
=23
2E-
2r}
=24
*M3/4
{4.G
8G
4G
=25
4.B-
8A-
4G
=26
4.F
8E-
4F
=27
2G
4E-}
=28
{4.G
8G
4G
=29
4.B-
8A-
4G
=30
4.F
8E-
4F
=31
2G
4E-}
=32
{4B-
4G
4B-
=33
4e-
4B-
4G
=34
4B-
4A-
4F
=35
2G
4r}
=36
{4e-
4e-
4e-
=37
4f
4f
4f
=38
4.d
8c
4d
=39
2e-
4r}
==
!!!AGN: Vaterlands -, Heimat - Lied, nationalistisch, Krieg
!!!ONB: ESAC (Essen Associative Code) Database: FINK
!!!AMT: irregular
!!!AIN: vox
!!!EED: Helmut Schaffrath
!!!EEV: 1.0
*-
